X:15
T:The Rights of Man
M:4/4
K:Em
GA|(3BcB (3ABA (3GAG (3FGF|EFGA B2ef|gfed edBd|edBG A2 GA|
(3BcB (3ABA (3GAG (3FGF|EFGA B2ef|gfed Bgfg|e2E2 E2:|
|:ga|babg efga|babg e2fe|d2d^c defg|afdf a2gf|
edef gfga|(3bag (3agf (3gfe (3def|gfed Bgfg|e2E2E2:|
